X: 500
T: Lillbacksvalsen efter Sigvard Stolt
S: efter Sigvard Stolt
R: Vals
O: Arbrå, Hälsingland
Z: Håkan Lidén, 2008-09-27
M: 3/4
L: 1/8
K: G
Q: 1/4=160
D2 | "G" G2 FG AF | G4 B2 | "D" d2 ^cd ec | d4 d2 | D2 F2 A2 | 
"C" cB cd e2 | "D" ed Bc AF | "G" G4 :: g2 | "Em" gf ed ef | gf ga b2 | 
"D" ba fd ef | "G" g4 g2 | "Em" gf ed ef | gf ga b2 | "D" ba fd ef | "G" g4 gf | 
"C" e2 c2 ce | "G" d2 B2 gf | "C" e2 c2 ce | "G" d2 B2 d2 | "D" dc Bc AF | "G" G4 :| 
(:musicend:)

(:music:)
